X: 24706
T: Macpherson's Rant
R: barndance
M: 4/4
K: Dmixolydian
|:D2|G3 A B2 AG|AGAB A2 DE|G3 A BA G2|E6 DE|
G3 A B2 AG|AGAB A2 DE|G3 B AG E2|D6:|
|:Bc|d3 B cBAG|B2 A2 A2 Bc|d3 B cBAG|E6 ge|
d3 B cBAG|B2 A2 A2 DE|G3 B AG E2|D6:|

